X: 2
T: Sleep Soond Ida Mornin
R: reel
M: 4/4
L: 1/8
K: Ador
Aa-ag a2ef|gedB GABG|Aa-ag a2ef| gedB A3 B |
Aa-ag a2ef|gedB GABG|Aa-ag a2ef| gedB A2 ||
AB | cAeA cAeA|BcdB G2 AB | cAeA cAeA|BAGB A2 AB|
cAeA cAeA|BcdB G3B|ABcd efga|gedB A4 |]

